X:1
T:Title
%%score ( 1 2 ) ( 3 4 ) ( 5 6 )
L:1/8
Q:1/4=121
M:3/4
K:A
V:1 bass nm="Picked Bass, Baritone Voice"
V:2 bass 
V:3 bass nm="Picked Bass, Tenor Voice"
V:4 bass 
V:5 treble nm="Picked Bass, Soprano Voice"
V:6 treble 
V:1
 .A,2 .A,2 A,2 | .E,2 .E,2 z B,,- | [B,,C,]D, E,2 z2 | A,2 F,2 D,2 | E,2 A,,4 | .A,,2 .A,2 .A,2 | %6
 A,2 .E,2 E,2 | z B,, C,D, E,2- | E,2 z2 F,2 | D,4 z2 | z6 | .A,,2 A,,2 .A,,2 | A,,2 D,2 .D,2 | %13
 A,,4 .A,2 | .A,2 .A,2 .A,2 | z2 F,2 .A,2 | A,2 D,2 .F,2 | A,2 E,2 .A,2 | A,4 z2 | A,2 F,2 D,2 | %20
 E,2 A,,4 | A,,4 z2 |] %22
V:2
 x6 | z2 z2 A,,2 | x6 | x6 | x6 | x6 | x6 | A,,2 z2 z2 | x6 | z2 E,2- [A,,-E,]2 | A,,2 A,,2 .A,,2 | %11
 x6 | x6 | x6 | x6 | D,4 z2 | x6 | x6 | z2 E,2 .A,2 | x6 | x6 | x6 |] %22
V:3
 E,2 .A,2 z2 | C2 B,2 .C2 | C2 B,4 | C2 A,2 F,2 | z2 A,4 | .A,2 E,2 .A,2 | z2 C2 B,2 | z2 C4 | %8
 z2 C4[K:bass] | z2 E,2- [E,A,-]2 | A,2 A,2[K:treble] C2 | .E2 .E2 .E2 | E2 .F2 F2 | E4 .[CE]2 | %14
 .[CE]2 .[B,E]2 .[CE]2 | F6 | E2 F2 F2 | .E2 E2 .C2 | C2[K:bass] B,2 A,B, | C2 A,2 z2 | E,2 A,4 | %21
 A,4 z2 |] %22
V:4
 z2 z2 A,2- | A,2 z2 z2 | x6 | x6 | E,4 z2 | x6 | A,4 z2 | C2 z2 B,2- | B,2 z2[K:bass] A,2 | %9
 F,4 z2 | x4[K:treble] x2 | x6 | x6 | x6 | x6 | z2 z2 E2 | x6 | x6 | x2[K:bass] x4 | z2 z2 F,2- | %20
 F,2 z2 z2 | x6 |] %22
V:5
 A4 c2- | c2 z2 z2 | A2 G2 z2 | A2 c2 d2 | B2 c4 | .c2 A2 .c2 | c2 A2 G2 | .A2 A2 G2 | z2 A2 c2 | %9
 d2 B2 c2- | c2 c2 .A2 | .A2 .A2 .A2 | .A2 .A2 .A2 | A4 .A2 | .A2 .A2 .A2 | A4 z2 | z2 .d2 d2 | %17
 c2 B2 z2 | c2 .e2 e2 | A2 c2 d2 | B2 c4 | c4 z2 |] %22
V:6
 z2 .c2 z2 | A2 G2 .A2 | x6 | x6 | x6 | x6 | x6 | x6 | x6 | x6 | x6 | x6 | x6 | x6 | x6 | x6 | %16
 z .c3 z2 | z2 z2 A2- | A2 z2 z2 | x6 | x6 | x6 |] %22

